X:151
T:Gallopade. CJF.151
R:misc
S:C.J.Fox MS, 1829/33, Beverley,E.Yorks.
N:The final note should be a quaver to scan properly. – PJH.
B:Kidson Coll.Mitchell Lib.M1805
O:England
A:East Yorkshire
Z:vmp.P J Headford 2000 & 2008
M:2/4
L:1/8
Q:1/4=100
K:D
” f”D|GD/G/ BG/B/|dB/d/ gB|d^c=cA|edBD|\
GD/G/ BG/B/|dB/d/ gB|d^c=cA|G3:|!
|:B|d^c=cA|edBG|d^c=cA|edBD|\
GD/G/ BG/B/|dB/d/ gd|dcAF|G2 g2:|

